X:148
T: BESENBINDERS TOCHTER UND KACHELMACHERS SOHN
N: Z0147
O: Europa, Mitteleuropa, Deutschland,Sachsen, Halle
R: Erzaehlung, lustige Romanze, Hochzeit
M: 4/4
L: 1/8
K: F
 |  |  | c2=B2c2A2 | F4F2A2 | G2^F2G2E2 | C6
A2 | c2=B2c2A2 | F4F2A2 | GG^F2G2E2 | C6
C2 | C2C2CCC2 | B4B2A2 | G2G2A2B2 | c4f2
A2 | c2=B2c2A2 | F2E2F2AA | G2^F2G2A2 | F4z4 |
C2C2C2C2 | BBB2B2A2 | G2G2A2B2 | c4f2
A2 | c2=B2c2A2 | F2F2F2A2 | G2^F2G2A2 | F6
A2 | c2=B2c2A2 | F2F2F2A2 | G2^F2G2A2 | F4F2
A2 | c2=B2c2A2 | F2E2F2A2 | G2^F2G2A2 | F4F2z2 |
C2C2C2C2 | BBB2B2A2 | G2G2A2B2 | c4f2
A2 | c2=B2c2A2 | F2F2F2A2 | G2^F2G2A2 | F8

@@@ Tune index: 9906
